X:14
T:The First Clan March of the O'Sullivans
M: 6/8
L: 1/8
R: jig
D:Catherine McEvoy with Felix Dolan (Sligo-Roscommon style)
K:Gmaj
D |: GBA ABd | edB AGD | GBA ~B2A | AGE GED |
G2B ABd | edB AGD | GBA ~B2A |1 AGG G2D :|2 AGG G2g ||
|: e2g e2g | ege edB | d2d dBd | egB ~A2G |
c2c dBd | egB A2G | GBA ~B2A |1 AGG G2 g :|2 AGG G2 D ||
